flaticon/baby/rattle-2.svg

<svg xmlns="http://www.w3.org/2000/svg" width="32" height="32" viewBox="0 0 24 24">
    <path d="M2.832031 8.386719C2.53125 8.691406 2.363281 9.09375 2.363281 9.527344 2.363281 9.957031 2.53125 10.359375 2.832031 10.664062 3.136719 10.96875 3.542969 11.136719 3.972656 11.136719 4.402344 11.136719 4.808594 10.96875 5.109375 10.664062 5.414062 10.359375 5.582031 9.957031 5.582031 9.527344 5.582031 9.09375 5.414062 8.691406 5.109375 8.386719 4.503906 7.777344 3.441406 7.777344 2.832031 8.386719zM4.542969 10.09375C4.238281 10.398438 3.707031 10.398438 3.402344 10.09375 3.25 9.941406 3.167969 9.738281 3.167969 9.523438 3.167969 9.308594 3.25 9.109375 3.402344 8.957031 3.554688 8.804688 3.757812 8.71875 3.972656 8.71875 4.1875 8.71875 4.390625 8.804688 4.542969 8.957031 4.695312 9.109375 4.777344 9.308594 4.777344 9.523438 4.777344 9.742188 4.695312 9.941406 4.542969 10.09375zM8.527344 2.691406C7.898438 3.320312 7.898438 4.34375 8.527344 4.96875 8.839844 5.285156 9.253906 5.441406 9.667969 5.441406 10.078125 5.441406 10.492188 5.285156 10.804688 4.96875 11.109375 4.667969 11.277344 4.261719 11.277344 3.832031 11.277344 3.402344 11.109375 2.996094 10.804688 2.691406 10.175781 2.0625 9.15625 2.066406 8.527344 2.691406zM10.234375 4.398438C9.921875 4.714844 9.410156 4.714844 9.097656 4.398438 8.785156 4.085938 8.785156 3.574219 9.097656 3.261719 9.253906 3.105469 9.460938 3.027344 9.667969 3.027344 9.871094 3.027344 10.078125 3.105469 10.234375 3.261719 10.386719 3.414062 10.472656 3.617188 10.472656 3.832031 10.472656 4.046875 10.386719 4.25 10.234375 4.398438zM7.957031 6.207031C7.527344 6.207031 7.125 6.375 6.820312 6.679688 6.515625 6.980469 6.347656 7.386719 6.347656 7.816406 6.347656 8.246094 6.515625 8.652344 6.820312 8.957031 7.125 9.261719 7.527344 9.425781 7.957031 9.425781 8.386719 9.425781 8.792969 9.257812 9.097656 8.957031 9.402344 8.652344 9.570312 8.246094 9.570312 7.816406 9.570312 7.386719 9.402344 6.980469 9.097656 6.679688 8.792969 6.375 8.386719 6.207031 7.957031 6.207031zM8.527344 8.386719C8.222656 8.691406 7.691406 8.691406 7.390625 8.386719 7.238281 8.234375 7.152344 8.03125 7.152344 7.816406 7.152344 7.601562 7.238281 7.398438 7.390625 7.246094 7.539062 7.09375 7.742188 7.011719 7.957031 7.011719 8.171875 7.011719 8.375 7.09375 8.527344 7.246094 8.679688 7.398438 8.761719 7.601562 8.761719 7.816406 8.761719 8.03125 8.679688 8.234375 8.527344 8.386719zM8.527344 8.386719"/>
    <path d="M 22.621094 16.785156 C 21.820312 15.988281 20.761719 15.546875 19.632812 15.546875 C 18.988281 15.546875 18.371094 15.691406 17.8125 15.960938 L 14.246094 12.394531 C 14.253906 12.054688 14.125 11.707031 13.867188 11.445312 L 13.519531 11.101562 C 14.242188 9.957031 14.636719 8.632812 14.636719 7.246094 C 14.636719 6.605469 14.546875 5.980469 14.386719 5.375 L 14.390625 5.367188 L 14.347656 5.21875 C 14.316406 5.113281 14.28125 5.011719 14.246094 4.910156 C 14.214844 4.820312 14.183594 4.730469 14.148438 4.640625 C 14.109375 4.539062 14.070312 4.441406 14.027344 4.339844 C 13.980469 4.238281 13.933594 4.136719 13.882812 4.039062 C 13.820312 3.910156 13.753906 3.785156 13.683594 3.660156 C 13.628906 3.566406 13.574219 3.472656 13.515625 3.382812 C 13.46875 3.308594 13.425781 3.238281 13.375 3.164062 C 13.273438 3.011719 13.160156 2.863281 13.046875 2.722656 C 13.007812 2.675781 12.972656 2.628906 12.933594 2.585938 C 12.800781 2.425781 12.660156 2.269531 12.515625 2.121094 C 12.367188 1.976562 12.210938 1.839844 12.054688 1.703125 C 12.007812 1.667969 11.960938 1.628906 11.917969 1.589844 C 11.773438 1.476562 11.625 1.363281 11.472656 1.261719 C 11.402344 1.210938 11.328125 1.167969 11.253906 1.121094 C 11.164062 1.0625 11.070312 1.007812 10.980469 0.957031 C 10.855469 0.882812 10.726562 0.816406 10.597656 0.753906 C 10.5 0.703125 10.398438 0.65625 10.296875 0.609375 C 10.199219 0.566406 10.097656 0.527344 9.996094 0.488281 C 9.90625 0.453125 9.816406 0.421875 9.730469 0.390625 C 9.625 0.355469 9.523438 0.320312 9.417969 0.289062 L 9.269531 0.242188 L 9.261719 0.25 C 8.65625 0.0898438 8.03125 0 7.390625 0 C 5.453125 0 3.632812 0.753906 2.265625 2.121094 C 0.894531 3.492188 0.140625 5.3125 0.140625 7.246094 C 0.140625 7.890625 0.230469 8.515625 0.390625 9.121094 L 0.386719 9.125 L 0.429688 9.273438 C 0.460938 9.378906 0.496094 9.480469 0.53125 9.582031 C 0.5625 9.675781 0.59375 9.765625 0.628906 9.855469 C 0.667969 9.953125 0.707031 10.054688 0.75 10.152344 C 0.796875 10.261719 0.851562 10.371094 0.90625 10.476562 C 0.964844 10.597656 1.027344 10.714844 1.09375 10.832031 C 1.148438 10.925781 1.203125 11.019531 1.261719 11.113281 C 1.308594 11.1875 1.351562 11.257812 1.402344 11.328125 C 1.503906 11.480469 1.617188 11.628906 1.730469 11.773438 C 1.769531 11.820312 1.808594 11.863281 1.847656 11.910156 C 1.980469 12.070312 2.117188 12.226562 2.265625 12.371094 C 2.410156 12.519531 2.566406 12.65625 2.726562 12.789062 C 2.769531 12.828125 2.816406 12.867188 2.863281 12.902344 C 3.007812 13.019531 3.152344 13.128906 3.304688 13.234375 C 3.378906 13.28125 3.449219 13.328125 3.523438 13.371094 C 3.613281 13.429688 3.707031 13.484375 3.800781 13.539062 C 3.925781 13.609375 4.050781 13.675781 4.179688 13.742188 C 4.28125 13.789062 4.378906 13.839844 4.480469 13.882812 C 4.582031 13.925781 4.683594 13.96875 4.785156 14.007812 C 4.871094 14.039062 4.960938 14.070312 5.050781 14.101562 C 5.152344 14.136719 5.253906 14.175781 5.359375 14.203125 L 5.511719 14.25 L 5.515625 14.242188 C 6.121094 14.40625 6.746094 14.496094 7.386719 14.496094 C 8.632812 14.496094 9.828125 14.179688 10.886719 13.59375 L 11.300781 14.007812 C 11.558594 14.265625 11.894531 14.390625 12.226562 14.390625 C 12.234375 14.390625 12.242188 14.390625 12.253906 14.390625 L 15.820312 17.957031 C 15.070312 19.527344 15.34375 21.464844 16.640625 22.765625 C 17.464844 23.589844 18.546875 24 19.628906 24 C 20.714844 24 21.796875 23.589844 22.621094 22.765625 C 23.417969 21.964844 23.859375 20.902344 23.859375 19.773438 C 23.859375 18.644531 23.417969 17.582031 22.621094 16.785156 Z M 5.21875 13.308594 C 5.035156 13.242188 4.851562 13.167969 4.675781 13.085938 C 4.636719 13.066406 4.597656 13.050781 4.558594 13.03125 C 4.386719 12.945312 4.21875 12.851562 4.050781 12.75 C 4.011719 12.726562 3.972656 12.707031 3.9375 12.683594 C 3.773438 12.578125 3.621094 12.46875 3.46875 12.351562 C 3.429688 12.324219 3.394531 12.296875 3.355469 12.269531 C 3.175781 12.121094 3 11.96875 2.832031 11.800781 C 2.667969 11.636719 2.511719 11.460938 2.367188 11.277344 C 2.339844 11.242188 2.3125 11.207031 2.285156 11.171875 C 2.167969 11.019531 2.054688 10.863281 1.953125 10.699219 C 1.929688 10.660156 1.90625 10.621094 1.886719 10.585938 C 1.785156 10.417969 1.691406 10.25 1.605469 10.078125 C 1.585938 10.039062 1.570312 10 1.550781 9.960938 C 1.46875 9.78125 1.394531 9.601562 1.328125 9.417969 C 1.320312 9.394531 1.3125 9.371094 1.304688 9.347656 L 9.488281 1.160156 C 9.511719 1.167969 9.535156 1.179688 9.558594 1.1875 C 9.742188 1.253906 9.925781 1.328125 10.101562 1.410156 C 10.140625 1.425781 10.179688 1.445312 10.21875 1.464844 C 10.390625 1.550781 10.558594 1.644531 10.726562 1.742188 C 10.765625 1.765625 10.804688 1.789062 10.839844 1.8125 C 11.003906 1.914062 11.15625 2.027344 11.308594 2.144531 C 11.347656 2.171875 11.382812 2.195312 11.421875 2.226562 C 11.601562 2.371094 11.777344 2.527344 11.945312 2.691406 C 12.109375 2.859375 12.265625 3.035156 12.410156 3.214844 C 12.4375 3.25 12.464844 3.289062 12.492188 3.324219 C 12.609375 3.476562 12.722656 3.632812 12.824219 3.796875 C 12.847656 3.832031 12.867188 3.871094 12.890625 3.90625 C 12.992188 4.074219 13.085938 4.242188 13.171875 4.417969 C 13.191406 4.457031 13.207031 4.496094 13.226562 4.535156 C 13.308594 4.710938 13.382812 4.890625 13.449219 5.078125 C 13.457031 5.101562 13.464844 5.125 13.472656 5.148438 L 5.289062 13.332031 C 5.265625 13.324219 5.242188 13.316406 5.21875 13.308594 Z M 0.945312 7.246094 C 0.945312 5.527344 1.617188 3.910156 2.832031 2.691406 C 4.050781 1.476562 5.667969 0.804688 7.390625 0.804688 C 7.796875 0.804688 8.199219 0.847656 8.589844 0.917969 L 1.0625 8.449219 C 0.988281 8.058594 0.945312 7.65625 0.945312 7.246094 Z M 6.1875 13.574219 L 13.714844 6.042969 C 13.789062 6.4375 13.832031 6.839844 13.832031 7.246094 C 13.832031 8.96875 13.160156 10.585938 11.945312 11.800781 C 10.726562 13.019531 9.109375 13.6875 7.390625 13.6875 C 6.980469 13.6875 6.578125 13.648438 6.1875 13.574219 Z M 11.660156 13.226562 L 13.082031 11.804688 L 13.296875 12.015625 C 13.492188 12.210938 13.492188 12.53125 13.296875 12.726562 L 12.585938 13.441406 C 12.386719 13.636719 12.070312 13.636719 11.871094 13.441406 Z M 13.152344 14.007812 L 13.867188 13.296875 L 13.9375 13.226562 L 17.070312 16.359375 L 16.214844 17.210938 L 13.082031 14.082031 Z M 22.050781 22.195312 C 20.714844 23.527344 18.546875 23.527344 17.210938 22.195312 C 15.875 20.859375 15.875 18.6875 17.210938 17.355469 C 17.878906 16.6875 18.753906 16.355469 19.628906 16.355469 C 20.507812 16.355469 21.382812 16.6875 22.050781 17.355469 C 23.386719 18.6875 23.386719 20.859375 22.050781 22.195312 Z M 22.050781 22.195312"/>
    <path d="M 21.480469 17.925781 C 20.988281 17.429688 20.332031 17.160156 19.628906 17.160156 C 18.929688 17.160156 18.273438 17.429688 17.78125 17.925781 C 17.285156 18.417969 17.015625 19.074219 17.015625 19.773438 C 17.015625 20.472656 17.285156 21.132812 17.78125 21.625 C 18.273438 22.117188 18.929688 22.390625 19.628906 22.390625 C 20.332031 22.390625 20.988281 22.117188 21.480469 21.625 C 22.5 20.605469 22.5 18.945312 21.480469 17.925781 Z M 20.914062 21.054688 C 20.570312 21.398438 20.117188 21.585938 19.628906 21.585938 C 19.144531 21.585938 18.691406 21.398438 18.347656 21.054688 C 18.007812 20.714844 17.820312 20.257812 17.820312 19.773438 C 17.820312 19.289062 18.007812 18.835938 18.347656 18.492188 C 18.691406 18.152344 19.144531 17.964844 19.628906 17.964844 C 20.117188 17.964844 20.570312 18.152344 20.914062 18.492188 C 21.617188 19.199219 21.617188 20.347656 20.914062 21.054688 Z M 20.914062 21.054688"/>
</svg>

<svg xmlns="http://www.w3.org/2000/svg" width="32" height="32" viewBox="0 0 24 24">
    <path d="M2.832 8.387a1.61 1.61 0 0 0-.469 1.14 1.608 1.608 0 1 0 3.219 0c0-.433-.168-.836-.473-1.14-.605-.61-1.668-.61-2.277 0zm1.711 1.707a.826.826 0 0 1-1.14 0 .8.8 0 0 1-.235-.57.804.804 0 1 1 1.375.57zm0 0M8.527 2.691a1.61 1.61 0 1 0 2.278 2.278A1.61 1.61 0 0 0 8.527 2.69zm1.707 1.707a.8.8 0 0 1-1.136 0 .804.804 0 1 1 1.137-1.137.804.804 0 0 1 .238.571.789.789 0 0 1-.239.566zm0 0M7.957 6.207c-.43 0-.832.168-1.137.473-.304.3-.472.707-.472 1.136a1.605 1.605 0 0 0 1.609 1.61 1.605 1.605 0 0 0 1.613-1.61c0-.43-.168-.836-.472-1.136a1.605 1.605 0 0 0-1.141-.473zm.57 2.18a.821.821 0 0 1-1.136 0 .804.804 0 1 1 1.37-.57.8.8 0 0 1-.234.57zm0 0"/>
    <path d="M22.621 16.785a4.209 4.209 0 0 0-2.988-1.238c-.645 0-1.262.144-1.82.414l-3.567-3.566a1.314 1.314 0 0 0-.379-.95l-.347-.343a7.196 7.196 0 0 0 .867-5.727l.004-.008-.043-.148c-.032-.106-.067-.207-.102-.309a7.46 7.46 0 0 0-.219-.57 7.121 7.121 0 0 0-.144-.3 6.997 6.997 0 0 0-.2-.38c-.054-.094-.109-.187-.167-.277-.047-.074-.09-.145-.141-.219a6.153 6.153 0 0 0-.328-.441c-.04-.047-.074-.094-.113-.137a7.874 7.874 0 0 0-.418-.465c-.149-.144-.305-.281-.461-.418a1.911 1.911 0 0 1-.137-.113 7.251 7.251 0 0 0-.445-.328c-.07-.051-.145-.094-.22-.14a5.06 5.06 0 0 0-.273-.165 5.14 5.14 0 0 0-.382-.203c-.098-.05-.2-.098-.301-.145-.098-.043-.2-.082-.3-.12-.09-.036-.18-.067-.267-.098-.105-.036-.207-.07-.312-.102L9.27.242 9.262.25A7.3 7.3 0 0 0 7.39 0a7.2 7.2 0 0 0-5.125 2.121A7.201 7.201 0 0 0 .14 7.246c0 .645.09 1.27.25 1.875l-.004.004.043.148c.03.106.066.207.101.309.031.094.063.184.098.273.039.098.078.2.121.297.047.11.102.22.156.325.059.12.121.238.188.355.054.094.11.188.168.281.047.075.09.145.14.215.102.152.215.3.328.445.04.047.079.09.118.137.132.16.27.317.418.461.144.149.3.285.46.418a7.235 7.235 0 0 0 .578.445c.075.047.145.094.22.137.09.059.183.113.277.168.125.07.25.137.379.203.101.047.199.098.3.14.102.044.204.087.305.126l.266.094c.101.035.203.074.308.101l.153.047.004-.008c.605.164 1.23.254 1.87.254a7.205 7.205 0 0 0 3.5-.902l.415.414c.258.258.594.383.926.383h.027l3.566 3.566a4.231 4.231 0 0 0 .82 4.809A4.21 4.21 0 0 0 19.63 24a4.218 4.218 0 0 0 4.23-4.227 4.202 4.202 0 0 0-1.238-2.988zM5.22 13.31a6.593 6.593 0 0 1-.543-.223c-.04-.02-.078-.035-.117-.055a7.221 7.221 0 0 1-.508-.281c-.04-.023-.078-.043-.114-.066a6.736 6.736 0 0 1-.468-.332c-.04-.028-.074-.055-.114-.082-.18-.149-.355-.301-.523-.47a5.93 5.93 0 0 1-.465-.523l-.082-.105a5.701 5.701 0 0 1-.332-.473c-.023-.039-.047-.078-.066-.113a7.22 7.22 0 0 1-.282-.508c-.02-.039-.035-.078-.054-.117a7.206 7.206 0 0 1-.246-.613L9.488 1.16c.024.008.047.02.07.028a6.593 6.593 0 0 1 1.169.554c.039.024.078.047.113.07.164.102.316.215.469.333.039.027.074.05.113.082.18.144.355.3.523.464.164.168.32.344.465.524l.082.11a5.7 5.7 0 0 1 .332.472c.024.035.043.074.067.11.101.167.195.335.28.511.02.039.036.078.056.117.082.176.156.356.222.543l.024.07-8.184 8.184-.07-.023zM.945 7.246c0-1.719.672-3.336 1.887-4.555A6.416 6.416 0 0 1 8.59.918L1.063 8.449a6.443 6.443 0 0 1-.118-1.203zm5.242 6.328l7.528-7.531a6.4 6.4 0 0 1-1.77 5.758 6.397 6.397 0 0 1-4.554 1.886c-.41 0-.813-.039-1.204-.113zm5.473-.347l1.422-1.422.215.21a.505.505 0 0 1 0 .712l-.711.714a.51.51 0 0 1-.715 0zm1.492.78l.715-.71.07-.07 3.133 3.132-.855.852-3.133-3.129zm8.899 8.188a3.43 3.43 0 0 1-4.84 0 3.423 3.423 0 0 1 0-4.84c.668-.668 1.543-1 2.418-1 .879 0 1.754.332 2.422 1a3.423 3.423 0 0 1 0 4.84zm0 0"/>
    <path d="M21.48 17.926a2.584 2.584 0 0 0-1.851-.766c-.7 0-1.356.27-1.848.766a2.581 2.581 0 0 0-.765 1.847c0 .7.27 1.36.765 1.852a2.597 2.597 0 0 0 1.848.766 2.6 2.6 0 0 0 1.851-.766 2.62 2.62 0 0 0 0-3.7zm-.566 3.129a1.799 1.799 0 0 1-1.285.53 1.802 1.802 0 0 1-1.809-1.813c0-.483.188-.936.528-1.28.343-.34.797-.527 1.28-.527.49 0 .942.187 1.286.527a1.82 1.82 0 0 1 0 2.563zm0 0"/>
</svg>
